packages/ckeditor5-special-characters/theme/icons/specialcharacters.svg

<svg viewBox="0 0 20 20" fill="none" xmlns="http://www.w3.org/2000/svg">
<path d="M10 2.5C11.5136 2.50001 12.9907 2.95705 14.231 3.80919C15.4713 4.66133 16.4149 5.86738 16.934 7.26391C17.453 8.66044 17.5224 10.1799 17.1327 11.6165C16.7431 13.053 15.6577 14.3363 14.5 15.2941H16.5132C16.5132 15.0679 16.6047 14.851 16.7675 14.691C16.9304 14.531 17.1513 14.4412 17.3816 14.4412C17.6119 14.4412 17.8328 14.531 17.9956 14.691C18.1585 14.851 18.25 15.0679 18.25 15.2941V16.1471C18.25 16.356 18.1719 16.5576 18.0305 16.7137C17.8892 16.8698 17.6944 16.9696 17.4832 16.994L17.3816 17H12.6867C12.4019 17 12.1711 16.7681 12.1711 16.4821V15.2173C12.1711 15.0069 12.2988 14.8193 12.4876 14.7281C13.5487 14.2156 14.4222 13.387 14.9803 12.3566C15.5931 11.2254 15.7882 9.9207 15.5324 8.66425C15.2765 7.40779 14.5857 6.2771 13.5771 5.46434C12.5686 4.65158 11.3046 4.20691 10 4.20588C8.69433 4.20493 7.4287 4.64858 6.41867 5.46125C5.40865 6.27393 4.71669 7.40537 4.46067 8.66287C4.20465 9.92038 4.40038 11.2262 5.01455 12.3578C5.57396 13.3886 6.449 14.2169 7.51166 14.7284C7.70084 14.8194 7.82895 15.0071 7.82895 15.2178V16.4821C7.82895 16.7681 7.59809 17 7.31332 17H2.61842C2.3881 17 2.16722 16.9101 2.00435 16.7502C1.84149 16.5902 1.75 16.3733 1.75 16.1471V15.2941C1.75 15.0679 1.84149 14.851 2.00435 14.691C2.16722 14.531 2.3881 14.4412 2.61842 14.4412C2.84874 14.4412 3.06963 14.531 3.23249 14.691C3.39535 14.851 3.48684 15.0679 3.48684 15.2941H5.41201C4.25434 14.3363 3.25695 13.053 2.86727 11.6165C2.47758 10.1799 2.54697 8.66044 3.06601 7.26391C3.58505 5.86738 4.52867 4.66133 5.76898 3.80919C7.0093 2.95705 8.48635 2.50001 10 2.5Z" fill="black"/>
</svg>

<svg viewBox="0 0 20 20" xmlns="http://www.w3.org/2000/svg"><path d="M10 2.5c1.514 0 2.99.457 4.231 1.31a7.268 7.268 0 012.703 3.454 7.128 7.128 0 01.199 4.353c-.39 1.436-1.475 2.72-2.633 3.677h2.013c0-.226.092-.443.254-.603a.876.876 0 011.229 0c.163.16.254.377.254.603v.853c0 .209-.078.41-.22.567a.873.873 0 01-.547.28l-.101.006h-4.695a.517.517 0 01-.516-.518v-1.265c0-.21.128-.398.317-.489a5.601 5.601 0 002.492-2.371 5.459 5.459 0 00.552-3.693 5.53 5.53 0 00-1.955-3.2A5.71 5.71 0 0010 4.206 5.708 5.708 0 006.419 5.46 5.527 5.527 0 004.46 8.663a5.457 5.457 0 00.554 3.695 5.6 5.6 0 002.497 2.37c.189.091.317.28.317.49v1.264c0 .286-.23.518-.516.518H2.618a.877.877 0 01-.614-.25.845.845 0 01-.254-.603v-.853c0-.226.091-.443.254-.603a.876.876 0 011.228 0c.163.16.255.377.255.603h1.925c-1.158-.958-2.155-2.241-2.545-3.678a7.128 7.128 0 01.199-4.352 7.268 7.268 0 012.703-3.455A7.475 7.475 0 0110 2.5z"/></svg>
